public/filterSVGs/couch.svg

<svg height="32" viewBox="0 0 256 256" width="32" xmlns="http://www.w3.org/2000/svg"><path d="m240 106.17v-34.17a16 16 0 0 0 -16-16h-192a16 16 0 0 0 -16 16v34.17a16 16 0 0 0 -8 13.83v48a16 16 0 0 0 16 16h8v16a8 8 0 0 0 16 0v-16h160v16a8 8 0 0 0 16 0v-16h8a16 16 0 0 0 16-16v-48a16 16 0 0 0 -8-13.83zm-16-2.17h-8a16 16 0 0 0 -16 16v16h-64v-64h88zm-104-32v64h-64v-16a16 16 0 0 0 -16-16h-8v-32zm112 96h-208v-48h16v24a8 8 0 0 0 8 8h160a8 8 0 0 0 8-8v-24h16z"/></svg>

<svg xmlns="http://www.w3.org/2000/svg" width="32" height="32" fill="#000000" viewBox="0 0 256 256"><path d="M240,106.17V72a16,16,0,0,0-16-16H32A16,16,0,0,0,16,72v34.17A16,16,0,0,0,8,120v48a16,16,0,0,0,16,16h8v16a8,8,0,0,0,16,0V184H208v16a8,8,0,0,0,16,0V184h8a16,16,0,0,0,16-16V120A16,16,0,0,0,240,106.17ZM224,104h-8a16,16,0,0,0-16,16v16H136V72h88ZM120,72v64H56V120a16,16,0,0,0-16-16H32V72Zm112,96H24V120H40v24a8,8,0,0,0,8,8H208a8,8,0,0,0,8-8V120h16Z"></path></svg>
